source/img/icon-mobile-menu.svg

<svg width="24" height="18" fill="none" xmlns="http://www.w3.org/2000/svg"><path d="M0 16h24v2H0v-2zm0-8h24v2H0V8zm0-8h24v2H0V0z" fill="#666"/></svg>

<svg width="24" height="18" viewBox="0 0 24 18" fill="none" xmlns="http://www.w3.org/2000/svg">
<path d="M0 16H24V18H0V16ZM0 8H24V10H0V8ZM0 0H24V2H0V0Z" fill="#666666"/>
</svg>
